!!!SOCIAL_FUNCTION:	bird dance songs
!!!PDT:	1956
!!!OTL: No_112_Hinata_Dance_Song_(h).krn
!!!LANG: Non-Tone
!!!LING_GROUP: Muskogean
!!!REG: Florida
**kern
*staff1
=1-
*clefF4
*k[b-e-]
*M2/4
8F\L
8c\J
8.c\L
16B-\Jk
=2!|:
4.B-\
16G\LL
16F\JJ
=3
8F\L
8c\J
8.B-\L
16G\Jk
=4
4.F\
8F\
=5||
*M3/4
16F\
16r
8B-\
(12B-\L
12F\)
12F\J
8.F\L
16D\Jk
=6||
*M2/4
4.BB-/
8BB-/
=7
8BB-/L
8F/J
8.G\L
16F\Jk
=8
4F\
8r
8F\
=9||
*M3/4
8F\L
8B-\J
(12B-\L
12F\)
12F\J
8.F\L
16D\Jk
=10||
*M2/4
4.BB-/
8BB-/
=11
8BB-/L
8c/J
8.c\L
16B-\Jk
==:|!
*-
